src/shared/icons/in-progress.svg

<?xml version="1.0" encoding="UTF-8" standalone="no"?>
<svg width="36px" height="36px" viewBox="0 0 36 36" version="1.1" xmlns="http://www.w3.org/2000/svg" xmlns:xlink="http://www.w3.org/1999/xlink">
    <!-- Generator: sketchtool 41.2 (35397) - http://www.bohemiancoding.com/sketch -->
    <title>C4447B5F-868D-457E-9D9A-1208B87EB141</title>
    <desc>Created with sketchtool.</desc>
    <defs></defs>
    <g id="Case-studies" stroke="none" stroke-width="1" fill="none" fill-rule="evenodd">
        <g id="480-nav/progress-is-open" transform="translate(-40.000000, -239.000000)">
            <g id="Progress-indicator" transform="translate(41.000000, 240.000000)">
                <circle id="Oval" stroke="#17788D" stroke-width="2" cx="17" cy="17" r="17"></circle>
                <path d="M8,16.9921875 C8,16.3359342 8.17577949,15.8398454 8.52734375,15.5039062 C8.87890801,15.1679671 9.39062164,15 10.0625,15 C10.7109407,15 11.2128888,15.1718733 11.5683594,15.515625 C11.9238299,15.8593767 12.1015625,16.3515593 12.1015625,16.9921875 C12.1015625,17.6093781 11.9218768,18.0957013 11.5625,18.4511719 C11.2031232,18.8066424 10.7031282,18.984375 10.0625,18.984375 C9.40624672,18.984375 8.8984393,18.8105486 8.5390625,18.4628906 C8.1796857,18.1152326 8,17.6250032 8,16.9921875 Z M14.8320312,16.9921875 C14.8320312,16.3359342 15.0078107,15.8398454 15.359375,15.5039062 C15.7109393,15.1679671 16.2265591,15 16.90625,15 C17.5546907,15 18.0566388,15.1718733 18.4121094,15.515625 C18.7675799,15.8593767 18.9453125,16.3515593 18.9453125,16.9921875 C18.9453125,17.6093781 18.7656268,18.0957013 18.40625,18.4511719 C18.0468732,18.8066424 17.5468782,18.984375 16.90625,18.984375 C16.2421842,18.984375 15.7304705,18.8105486 15.3710938,18.4628906 C15.011717,18.1152326 14.8320312,17.6250032 14.8320312,16.9921875 Z M21.6757812,16.9921875 C21.6757812,16.3359342 21.8515607,15.8398454 22.203125,15.5039062 C22.5546893,15.1679671 23.0664029,15 23.7382812,15 C24.386722,15 24.8886701,15.1718733 25.2441406,15.515625 C25.5996112,15.8593767 25.7773438,16.3515593 25.7773438,16.9921875 C25.7773438,17.6093781 25.597658,18.0957013 25.2382812,18.4511719 C24.8789045,18.8066424 24.3789095,18.984375 23.7382812,18.984375 C23.082028,18.984375 22.5742205,18.8105486 22.2148438,18.4628906 C21.855467,18.1152326 21.6757812,17.6250032 21.6757812,16.9921875 Z" id="…" fill="#17788D" fill-rule="evenodd"></path>
            </g>
        </g>
    </g>
</svg>

<svg width="36" height="36" viewBox="0 0 36 36" xmlns="http://www.w3.org/2000/svg"><title>C4447B5F-868D-457E-9D9A-1208B87EB141</title><g transform="translate(1 1)" fill="none" fill-rule="evenodd"><circle stroke="#17788D" stroke-width="2" cx="17" cy="17" r="17"/><path d="M8 16.992c0-.656.176-1.152.527-1.488.352-.336.864-.504 1.536-.504.648 0 1.15.172 1.505.516.356.343.534.836.534 1.476 0 .617-.18 1.104-.54 1.46-.359.355-.859.532-1.5.532-.656 0-1.164-.173-1.523-.521-.36-.348-.539-.838-.539-1.47zm6.832 0c0-.656.176-1.152.527-1.488.352-.336.868-.504 1.547-.504.649 0 1.15.172 1.506.516.356.343.533.836.533 1.476 0 .617-.18 1.104-.539 1.46-.36.355-.86.532-1.5.532-.664 0-1.176-.173-1.535-.521-.36-.348-.539-.838-.539-1.47zm6.844 0c0-.656.176-1.152.527-1.488.352-.336.863-.504 1.535-.504.649 0 1.15.172 1.506.516.356.343.533.836.533 1.476 0 .617-.18 1.104-.539 1.46-.36.355-.86.532-1.5.532-.656 0-1.164-.173-1.523-.521-.36-.348-.54-.838-.54-1.47z" fill="#17788D" stroke="none"/></g></svg>
